src/_includes/icons/linkedIn.svg

<svg width="48" height="48" viewBox="0 0 48 48" fill="none" xmlns="http://www.w3.org/2000/svg">
<g clip-path="url(#clip0)">
<path d="M44.4567 0H3.54333C2.60358 0 1.70232 0.373315 1.03782 1.03782C0.373315 1.70232 0 2.60358 0 3.54333V44.4567C0 45.3964 0.373315 46.2977 1.03782 46.9622C1.70232 47.6267 2.60358 48 3.54333 48H44.4567C45.3964 48 46.2977 47.6267 46.9622 46.9622C47.6267 46.2977 48 45.3964 48 44.4567V3.54333C48 2.60358 47.6267 1.70232 46.9622 1.03782C46.2977 0.373315 45.3964 0 44.4567 0ZM14.3067 40.89H7.09V17.9667H14.3067V40.89ZM10.6933 14.79C9.87473 14.7854 9.07583 14.5384 8.39747 14.0802C7.71911 13.622 7.19168 12.9731 6.88175 12.2154C6.57183 11.4577 6.4933 10.6252 6.65606 9.82291C6.81883 9.02063 7.2156 8.28455 7.79631 7.70756C8.37702 7.13057 9.11563 6.73853 9.91893 6.58092C10.7222 6.42331 11.5542 6.50719 12.3099 6.82197C13.0656 7.13675 13.7111 7.66833 14.1649 8.34962C14.6188 9.03092 14.8606 9.83138 14.86 10.65C14.8677 11.1981 14.765 11.7421 14.558 12.2496C14.351 12.7571 14.044 13.2178 13.6551 13.6041C13.2663 13.9905 12.8037 14.2946 12.2948 14.4983C11.786 14.702 11.2413 14.8012 10.6933 14.79ZM40.9067 40.91H33.6933V28.3867C33.6933 24.6933 32.1233 23.5533 30.0967 23.5533C27.9567 23.5533 25.8567 25.1667 25.8567 28.48V40.91H18.64V17.9833H25.58V21.16H25.6733C26.37 19.75 28.81 17.34 32.5333 17.34C36.56 17.34 40.91 19.73 40.91 26.73L40.9067 40.91Z" fill="#0A66C2"/>
</g>
<defs>
<clipPath id="clip0">
<rect width="48" height="48" fill="white"/>
</clipPath>
</defs>
</svg>

<svg xmlns="http://www.w3.org/2000/svg" width="100%" height="100%" viewBox="0 0 48 48" fill="none"><path fill="currentcolor" d="M44.457 0H3.543A3.543 3.543 0 000 3.543v40.914A3.543 3.543 0 003.543 48h40.914A3.543 3.543 0 0048 44.457V3.543A3.543 3.543 0 0044.457 0zm-30.15 40.89H7.09V17.967h7.217V40.89zm-3.614-26.1a4.143 4.143 0 114.167-4.14 4.083 4.083 0 01-4.167 4.14zm30.214 26.12h-7.214V28.387c0-3.694-1.57-4.834-3.596-4.834-2.14 0-4.24 1.614-4.24 4.927v12.43H18.64V17.983h6.94v3.177h.093c.697-1.41 3.137-3.82 6.86-3.82 4.027 0 8.377 2.39 8.377 9.39l-.003 14.18z"/></svg>
